X:1
T:In the days we went Gipsying
T:In the days we went Gipsying
T:Nathan James Sporle (1812-1853)
C:Nathan James Sporle (1812-1853)
L:1/8
M:2/4
K:C
V:1 treble 
V:1
 G2 | c>cc>c | d>cBA | GG F>G | E3 D | CDEF | GABc | dc A>B | G3 A | A>A AB | c<G GG | FGEF | %12
 D2 G2 | c>ccc | c>ccA | G<c e>d | c3 G | G>F E>F | AGGG | .A.B.c.d | B2 G>G | cccc | cBc>d | %23
 e2 e>e | f>edd | eccA | G2 e>d | c2 G2 | G>G F>F | E2 B2 | c2 c>c | c2 || %32

